images/icon/storeLocator.svg

<svg width="43" height="41" viewBox="0 0 43 41" fill="none" xmlns="http://www.w3.org/2000/svg">
<path d="M8.20386 20.042V39.2986H34.7964V20.042" stroke="white" stroke-width="1.83397" stroke-miterlimit="22.9256" stroke-linecap="round" stroke-linejoin="round"/>
<path d="M16.4565 20.959H27.4603V30.1288H16.4565V20.959Z" stroke="white" stroke-width="1.83397" stroke-miterlimit="22.9256" stroke-linecap="round" stroke-linejoin="round"/>
<path d="M8.20386 12.7059V1.70215H13.7058V7.95694" stroke="white" stroke-width="1.83397" stroke-miterlimit="22.9256" stroke-linecap="round" stroke-linejoin="round"/>
<path d="M41.2152 19.1978L41.0953 19.3176L41.2152 19.5573L38.3388 22.7928L21.56 7.81363L4.78113 22.7928L1.78491 19.5573L2.02461 19.3176L1.78491 19.1978L21.3203 1.70215L21.56 1.94181L21.6798 1.70215L41.2152 19.1978Z" stroke="white" stroke-width="1.83397" stroke-miterlimit="22.9256" stroke-linecap="round" stroke-linejoin="round"/>
</svg>

<svg width="43" height="41" fill="none" xmlns="http://www.w3.org/2000/svg"><path d="M8.204 20.042v19.257h26.592V20.042" stroke="#fff" stroke-width="1.834" stroke-miterlimit="22.926" stroke-linecap="round" stroke-linejoin="round"/><path d="M16.456 20.959H27.46v9.17H16.456v-9.17zm-8.252-8.253V1.702h5.502v6.255" stroke="#fff" stroke-width="1.834" stroke-miterlimit="22.926" stroke-linecap="round" stroke-linejoin="round"/><path d="M41.215 19.198l-.12.12.12.24-2.876 3.235L21.56 7.813 4.781 22.794l-2.996-3.236.24-.24-.24-.12L21.32 1.703l.24.24.12-.24 19.535 17.496z" stroke="#fff" stroke-width="1.834" stroke-miterlimit="22.926" stroke-linecap="round" stroke-linejoin="round"/></svg>
